X:1
T:Nocturn
T:Nocturne
T:F.Chopin,Op.9 No.1
C:F.Chopin
%%score { ( 1 3 ) | ( 2 4 5 6 ) }
L:1/8
Q:1/4=96
M:6/4
K:Db
V:1 treble nm="Piano" snm="Pno."
V:3 treble 
V:2 bass 
V:4 bass 
V:5 bass 
V:6 bass 
V:1
!p!"_espress.""^Largetto" (bc'd'=a[Q:1/4=90]bg |[Q:1/4=100] .f2 .f2 .f2)!p! (f2 gfec | %2
[Q:1/4=96] d4 B2)[Q:1/4=100]!p! (11:6:11(bc'd'=aba^ga[Q:1/4=80]c'b_g) | %3
[Q:1/4=100] (22:12:22(fg=efb.=a._a.=g._g.f.e ._e.=d._dcdc=Bcf=e_e[Q:1/4=90][Q:1/4=80] | %4
[Q:1/4=96]!>(! !>!d4!>)! B2)[Q:1/4=100]!p! (.b2 .b2 .b2) | %5
 !>!a8-[Q:1/4=96]!p!!<(! a2-[Q:1/4=92] ag!<)! |[Q:1/4=100]!p! !>!f6 (e2!>(! fed__B!>)! | %7
!p! A4 d2)"_smorz."!>(! (e2[Q:1/4=96] fede!>)! | %8
[Q:1/4=94]!pp! f6)!p![Q:1/4=96] (b!>(!c'd'=a{/c'}bg!>)![Q:1/4=90] | %9
!p![Q:1/4=100]!<(! .f2 .f2 .f2)!<)!!p! (f2 gfec | %10
[Q:1/4=92]!>(! d4!>)! B2)[Q:1/4=100]!p! (11:6:11(bc'd'=aba!<(!^ga[Q:1/4=96]c'b_g!<)! | %11
!mp![Q:1/4=80] (3.f)[Q:1/4=92]!8va(!(f''"_legatissimo"!>(!=e'' (3_e''d''c'' (3b'g'f'!8va)![Q:1/4=96] (3=e'_e'd' (3c'!>)!b=a[Q:1/4=100] (3!>!gfc | %12
[Q:1/4=94]!>(! d4!p! B2)!>)![Q:1/4=100]!<(! (.b2 .b2 .b2)!<)! | %13
!mp! (b4 =d2)[Q:1/4=80]!mp! (Te2[Q:1/4=100] de !>!g>f[Q:1/4=100] | %14
[Q:1/4=96] f4 =e2)[Q:1/4=100]({fg)} (7:6:7(fef=g.=a.b.c' |!f! d'4 (3b_gB !>!d4 c2)[Q:1/4=60] | %16
[Q:1/4=100]!mf!{/B} (!>!f'3 d' (3bgB !>!d4 c2)[Q:1/4=60] | %17
[Q:1/4=100]!8va(!{/b} !>!d''2- (3d''.b'.g'!8va)! (3.d'.b.B[Q:1/4=94]!mf! (!>!_c4!p! =A2 | %18
 B6)!>(! z2[Q:1/4=90] z4!>)![Q:1/4=80] |[Q:1/4=96]"^sotto voce" ([Ff]6 [_F_f]6 | %20
 [Ee][=F=f] [Ee]2 [Cc]2 [B,B]2 !>![A,A]4) | ([B,B]2 !>![Cc]4 [Dd]2!pp! !>![Ee]4) | %22
!p! ([Ff][Gg][Q:1/4=92] [Bb]2 [Aa]2[Q:1/4=96] [Ff]6) | %23
"^poco rall" ([Ff]6[Q:1/4=94] [=E=e]6[Q:1/4=92] |!ppp! [=D=d][=E=e] [Dd]2 [=A,=A]2 !>![=B,=B]6) | %25
 ([=D=d][=E=e] [Dd]2 [=A,=A]2[Q:1/4=96]"^a tempo"!f! [_B,_B]6) | %26
"_cresc." ([Cc]6 [_D_d]6)[Q:1/4=92] |[Q:1/4=96]!p! ([Ff]6 [_F_f]6 | %28
 [Ee][=F=f] [Ee]2 [Cc]2 [B,B]2 !>![A,A]4) | ([B,B]2 !>![Cc]4 [Dd]2 !>![Ee]4) | %30
 ([Ff][Gg][Q:1/4=94] [Bb]2[Q:1/4=92] [Aa]2[Q:1/4=36][Q:1/4=96]{/[Aa]} [Ff]6)[Q:1/4=120] | %31
 ([Ff]6[Q:1/4=94] [=E=e]6[Q:1/4=92] | [=D=d][=E=e] [Dd]2 [=A,=A]2 !>![=B,=B]6) | %33
 ([=D=d][=E=e] [Dd]2 [=A,=A]2[Q:1/4=96] [_B,_B]6) | ([Cc]6 [_D_d]6) | %35
!f![Q:1/4=98] ([Ee]6[Q:1/4=100] [Ff]6 | %36
[Q:1/4=104] [Gg]2 [Ff][Gg][Aa][Bb]!f!!>(! [Bb]2!>)! [Ee]2) (!>![Aa]2- | %37
 [Aa]2!>(! [Bb][Aa][Gg][Ff]!>)!!mf! [Ff]2)!>(! ([Gg][Ff][Ee][Dd]!>)! | %38
 !>![Ee]6- [Ee]4)[Q:1/4=90]!mf! ([=E=e]2 |[Q:1/4=96]!p! [Ff]6[Q:1/4=94] [=E=e]6[Q:1/4=92] | %40
!ppp! [=D=d][=E=e] [Dd]2 [=A,=A]2 !>![=B,=B]6) | %41
 ([=D=d][=E=e] [Dd]2 [=A,=A]2"^a tempo"[Q:1/4=96] [_B,_B]6) | ([Cc]6 [_D_d]6) | %43
!f! ([Ee]6[Q:1/4=100] [Ff]6[Q:1/4=98] | %44
[Q:1/4=108] [Gg]2!<(! [Ff][Gg][Aa][Bb]!<)!!f!!>(! [Bb]2!>)! [Ee]2) (!>![Aa]2- | %45
 [Aa]2!>(! [Bb][Aa][Gg][Ff]!>)!!mf! [Ff]2)!>(! ([Gg][Ff][Ee][Dd]!>)! | %46
 [Ee]6- [Ee]4)[Q:1/4=90]!mp! ([=E=e]2 |[Q:1/4=100]!p! [Ff]6[Q:1/4=98] [=E=e]6 | %48
[Q:1/4=94]!ppp! [=D=d][=E=e] [Dd]2 [=A,=A]2 !>![=B,=B]6) | %49
 ([=D=d][=E=e] [Dd]2 [=A,=A]2[Q:1/4=96]"^a tempo" [_B,_B]6) | ([Cc]6 [_D_d]6) | %51
!ff! (!>!f4 ef e4 d2) | ([_ca]3 [db][ca][db] [ca]3) z z2 | (f4 ef !>!e4 d2) | %54
 ([_ca][db][ca][db][ca][db] [ca]6) |!f!!>(! ([d'f']3 [_c'e'][ac']!>)![fa] [_cf]4) ([eg]2 | %56
!f! [gb]6!mp! [fa]6) |!pp! (!>![df]3 [_ce][Ac][FA] [_CF]4) ([EG]2 | !>![GB]6 [FA]6) | z12 | z12 | %61
!ppp! ([df]4 [Ae][df] [Ae]4 [Fd]2) | ([fa]3 [gb][fa][gb] [fa]3) z z2 | %63
 ([df]4 [Ae][df] [Ae]4 [Fd]2) | ([fa][gb][fa][gb][fa][gb] [fa]6) | %65
!pp! ([d'f']3 [ae'][fd'][fa] [df]4) ([eg]2 | [gb]6 [fa]6) | !>![df]12- |!>(! [df]12- | [df]12 | %70
 z4!>)![Q:1/4=92] z2[Q:1/4=92] (bc'd'!>!=a!>!bg[Q:1/4=80]!p! | %71
[Q:1/4=100]"^a tempo"!<(! .f2 .f2!<)! .f2)!p! (f2!>(! gfe!p!c!>)! | %72
 d4!p! B2)[Q:1/4=96] (bc'd'=a (3c'bg | %73
 (3fg=e[Q:1/4=90] (3f)"_legatissimo"!8va(!(f''=e'' (3_e''d''c'' (20:6:20b'=a'g'f'=e'_e'!8va)!d'c'b=agfgef=Bc[Q:1/4=80]f_ed | %74
[Q:1/4=92] d4!p! B2)[Q:1/4=100]!<(! (.b2 .b2!<)! .b2) | %75
!p!!>(! (b4!>)! =d2)!p! (7:6:7(efede!>!g3/2f/) | %76
!>(! (f4 =e2)!>)!"^"!p! (Tf2{=ef}!<(! (.=g).=a.b.c')!<)! | %77
!f! (d'4 (3b_gB !>!d4 c2)[Q:1/4=60][Q:1/4=80] | %78
[Q:1/4=100]"_cresc."{/B} (!>!f'3 d' (3bgB !>!d4 c2)[Q:1/4=60] | %79
[Q:1/4=100]!ff!!8va(!{/b} d''2- (3d''.b'.g'!8va)! (3.d'.b.B!>(! (!>!_c4 =A2!>)! | %80
!p! B6)[Q:1/4=94] (!>!_c4 =A2 | %81
!>(! B6)[Q:1/4=90] (!>!_c/e/g/_c'/) e'[Q:1/4=100] z z[Q:1/4=90] (=A!>)! | %82
[Q:1/4=100]!pp! B4) z2!ff! [e'g']6- | %83
[Q:1/4=102] [e'g']!>![_c'e'][Q:1/4=104]!>![=ac']!>![ga][Q:1/4=106]!>![eg]!>![_ce][Q:1/4=108]"_dim." !>![=Ac]!>![GA][Q:1/4=110]!>![EG]!>![_CE][Q:1/4=80]"^ritenuto"[I:staff +1]!>![=A,C][Q:1/4=60]!>![G,A,E] | %84
[Q:1/4=80][I:staff -1] z12[Q:1/4=60][Q:1/4=30][Q:1/4=24] | %85
[Q:1/4=32] z12[Q:1/4=34][Q:1/4=32][Q:1/4=28][Q:1/4=40] |] %86
V:2
 z4 z2 |!ped!!<(! (B,,F,DB,F!<)!F,)!ped-up!!ped! (B,,F,!>(!E=A,FF,)!ped-up!!>)! | %2
"_simile"!>(!!ped! (B,,F,DB,F!>)!F,)!ped-up!!ped! (B,,F,DB,FF,)!ped-up! | %3
!ped! (B,,F,DB,FF,)!ped-up!!ped! (B,,F,E=A,FF,)!ped-up! | %4
!ped! (B,,F,DB,FF,)!ped-up!!<(!!ped! (B,,F,DB,!<)!FF,)!ped-up! | %5
!ped! (D,,F,DA,FF,) (G,,D,B,G,DD,)!ped-up! | %6
!ped! (D,,D,A,F,DD,)!ped-up!!ped! (G,,D,__B,G,DD,)!ped-up! | %7
!ped! (D,,D,A,F,DD,)!ped-up!!ped! (G,,D,__B,G,EC,)!ped-up! | %8
!ped! (F,,C,=A,F,EA,)!ped-up!!ped! (B,,F,DB,FF,)!ped-up! | %9
!ped! (B,,F,DB,FF,)!ped-up!!ped! (B,,F,!>(!E=A,FF,)!ped-up!!>)! | %10
!ped! (B,,F,DB,FF,)!ped-up!!ped! (B,,F,DB,FF,)!ped-up! | %11
!ped! (B,,F,DB,FF,)!ped-up!!ped! (B,,F,E=A,FF,)!ped-up! | %12
!ped! (B,,F,DB,FF,)!ped-up!!ped! (B,,F,DB,FF,)!ped-up! | %13
!>(!!ped! (B,,F,=DB,A!>)!B,)!ped-up!!ped! (E,G,EB,GE)!ped-up! | %14
!>(!!ped! (C,=G,=ECB!>)!!p!C)!ped-up!!<(!!ped! (F,C[K:treble]=A_EcA)!<)!!ped-up! | %15
[K:bass]"^appassionato"!ped! (B,,F,DB,E,G)!ped!!ped-up! (F,,F,B,FE=A,)!ped-up!!ped! | %16
"^cresc."!<(! (B,,F,DB,E,G)!ped-up!!ped! (F,,F,B,FE=A,)!ped-up!!ped!!<)! | %17
"^con forza" (G,,D,G,B,_FG,)!ped-up!!ped! (E,G,_CE=F,E) | %18
!<(!!ped! (B,,F,DB,FD!<)!"^smorz." B,F,D,B,,F,,E,,)!ped-up! | %19
!pp!!ped! (D,,A,,D,A,D,A,,)!ped-up!!ped! (D,,A,,D,__A,D,_A,,)!ped-up! | %20
"_simile"!ped! (D,,A,,C,G,C,A,,)!ped-up!!ped! (D,,A,,C,G,C,A,,)!ped-up! | %21
!ped! (D,,A,,C,G,C,A,,)!ped-up!!ped!!<(! (D,,A,,C,!<)!G,C,A,,)!ped-up! | %22
!ped! (D,,A,,E,A,C,A,,)!ped-up!!ped! (D,,A,,D,A,D,A,,)!ped-up! | %23
!ped! (D,,A,,D,A,D,A,,)!ped-up!!ped! (^C,,=A,,^C,=G,^C,=A,,)!ped-up! | %24
!ped! (=D,,=A,,=D,^F,D,A,,)!ped-up!!ped! (D,,=G,,D,=G,D,G,,)!ped-up! | %25
!ped! (=D,,=A,,=D,^F,D,A,,)!ped-up!!ped! (=G,,^C,=E,_B,=E,^C,)!ped-up! | %26
!ped! (_A,,_E,_G,__B,A,A,,)!ped-up!!ped! (D,,A,,D,_A,_D,!f!_A,,)!ped-up! | %27
!ped! (D,,A,,D,A,D,A,,)!ped-up!!ped! (D,,A,,D,__A,D,_A,,)!ped-up! | %28
!ped! (D,,A,,C,G,C,A,,)!ped-up!!ped! (D,,A,,C,G,C,A,,)!ped-up! | %29
!ped! (D,,A,,C,G,C,A,,)!ped-up!!ped! (D,,A,,C,G,C,A,,)!ped-up! | %30
!ped! (D,,A,,E,A,C,A,,)!ped! (D,,A,,D,A,D,A,,)!ped-up! | %31
!ped! (D,,A,,D,A,D,A,,)!ped-up!!ped! (^C,,=A,,^C,=G,^C,=A,,)!ped-up! | %32
!ped! (=D,,=A,,=D,^F,D,A,,)!ped-up!!ped! (D,,=G,,D,=G,D,G,,)!ped-up! | %33
!ped! (=D,,=A,,=D,^F,D,A,,)!ped-up!!ped! (=G,,^C,=E,_B,=E,^C,)!ped-up! | %34
!ped! (_A,,_E,_G,__B,A,A,,)!ped-up!!ped! (D,,A,,D,_A,_D,_B,,)!ped-up! | %35
"^poco stretto"!ped! (A,,E,A,CA,E,)!ped-up!!ped! (A,,=D,F,B,F,D,)!ped-up! | %36
!ped! (G,,B,,!<(!E,B,E,B,,)!ped-up!!<)!!ped! (G,,C,E,A,E,C,)!ped-up! | %37
!ped! (F,,A,,D,A,D,A,,)!ped-up!!ped! (D,,A,,D,A,D,A,,)!ped-up! | %38
!ped! (D,,B,,E,=G,E,B,,)!ped-up!!ped! (D,,__B,,!<(!C,_G,C,_A,,)!ped-up!!<)! | %39
"^poco rall"!ped! (D,,A,,D,A,D,A,,)!ped-up!!ped! (^C,,=A,,^C,=G,^C,=A,,)!ped-up! | %40
!ped! (=D,,=A,,=D,^F,D,A,,)!ped-up!!ped! (D,,=G,,D,=G,D,G,,)!ped-up! | %41
!ped! (=D,,=A,,=D,^F,D,A,,)!ped-up!!f!!ped! (=G,,^C,=E,_B,=E,^C,)!ped-up! | %42
!ped! (_A,,_E,_G,__B,A,A,,)!ped-up!!ped! (D,,A,,D,_A,_D,_B,,)!ped-up! | %43
"^poco stresso"!ped! (A,,E,A,CA,E,)!ped-up!!ped! (A,,=D,F,B,F,D,)!ped-up! | %44
!ped! (G,,B,,E,B,E,B,,)!ped-up!!ped! (G,,C,E,A,E,C,)!ped-up! | %45
!ped! (F,,A,,D,A,D,A,,)!ped-up!!ped! (D,,A,,D,A,D,A,,)!ped-up! | %46
!ped! (D,,B,,E,=G,E,B,,)!ped-up!!<(!!ped! (D,,__B,,C,_G,C,_A,,)!<)!!ped-up! | %47
"^poco rallent"!ped! (D,,A,,D,A,D,A,,)!ped-up!!ped! (^C,,=A,,^C,=G,^C,=A,,)!ped-up! | %48
!ped! (=D,,=A,,=D,^F,D,A,,)!ped-up!!ped! (D,,=G,,D,=G,D,G,,)!ped-up! | %49
!ped! (=D,,=A,,=D,^F,D,A,,)!ped-up!!f!!ped! (=G,,^C,=E,_B,=E,^C,)!ped-up! | %50
!ped! (_A,,_E,_G,__B,A,A,,)!ped-up!!ped! (D,,A,,D,A,D,A,,)!ped-up! | %51
!ped! (D,,A,,D,A,D,A,,)!ped-up!!ped! (D,,A,,D,A,D,A,,)!ped-up! | %52
!ped! (D,,A,,D,A,D,A,,)!ped-up!!ped! (D,,A,,D,A,D,A,,)!ped-up! | %53
!ped! (D,,A,,D,A,D,A,,)!ped-up!!ped! (D,,A,,D,A,D,A,,)!ped-up! | %54
!ped! (D,,A,,D,A,D,A,,)!ped-up!!ped! (D,,A,,D,A,D,A,,)!ped-up! | %55
"^con forza"!ped! (D,,A,,D,A,D,A,,)!ped-up!!ped! (D,,A,,D,!<(!A,D,A,,)!ped-up!!<)! | %56
!>(!!ped! (D,,A,,D,A,D,A,,)!>)!!ped-up!!ped! (D,,A,,D,A,D,A,,)!ped-up! | %57
"_sempre"!ped! (D,,A,,D,A,D,A,,) (D,,A,,D,A,D,A,,) | (D,,A,,D,A,D,A,,) (D,A,DA,D,A,,) | %59
 (D,A,DA,D,A,,) (D,A,DA,D,A,,) | (D,A,DA,D,A,,) (D,A,DA,D,A,,) | %61
 (D,A,"^legatissimo"DA,D,A,,) (D,A,DA,D,A,,) | (D,A,DA,D,A,,) (D,A,DA,D,A,,) | %63
 (D,A,DA,D,A,,) (D,A,DA,D,A,,) | (D,A,DA,D,A,,) (D,A,DA,D,A,,) | %65
"^sempre pianissimo" (D,A,DA,D,A,,) (D,A,DA,D,A,,) | (D,A,DA,D,A,,) (D,A,DA,D,A,,)!ped-up! | %67
!p!!ped! (D,A,DA,D,)(=A,, D,=A,DA,D,)(_A,, |"^smorz." D,_A,DA,D,)(G,, D,G,DG,D,)(A,, | %69
 D,A,DA,D,)(=A,, D,=A,DA,D,)(A,, | %70
 D,=A,DA,"^rall. e dolciss."!pp!D,)(B,,!ped-up!!ped! D,F,DB,FF,)!ped-up! | %71
!ped! (B,,F,DB,FF,)!ped-up!!ped! (B,,F,E=A,FF,)!ped-up! | %72
!>(!!ped! (B,,F,DB,!>)!FF,)!ped-up!!ped! (B,,F,DB,FF,)!ped-up! | %73
!ped! (B,,F,DB,FF,)!ped-up!!ped! (B,,F,E=A,FF,)!ped-up! | %74
!ped! (B,,F,DB,FF,)!ped-up!!ped! (B,,F,DB,FF,)!ped-up! | %75
!ped! (B,,F,=DB,AB,)!ped-up!!ped! (E,G,EB,GE)!ped-up! | %76
!ped! (C,=G,=ECBC)!ped-up!!ped! (F,C[K:treble]=A_EcA)!ped-up! | %77
[K:bass]!ped! (B,,F,DB,E,G)!ped!!ped-up! (F,,F,B,FE=A,)!ped-up!!ped! | %78
 (B,,F,DB,E,G)!ped-up!!ped! (F,,F,B,FE=A,)!ped-up!!ped! | %79
 (G,,D,G,B,_FG,)!ped-up!!ped! (E,G,_CE"^dim."=F,E) | %80
!ped! (B,,F,DB,FB,)!ped-up!!ped! (B,,G,E=A,GG,)!ped-up! | %81
!ped! (B,,"^smorz."F,DB,FB,)!ped-up!!ped! (B,,G,E=A,GG,)!ped-up! | %82
!ped! (B,,F,DB,FB,)!ped!!ped-up! (B,,!>(!G,=A,_CEG!ped-up!!>)! | %83
[K:treble]"^accelerando" =A2) z2 z2 z4[K:bass] z2 | %84
!pp!!ped! ([B,=D]6 .[B,D]2 .[B,D]2!ped-up!!ped! .[B,D]2)!ped-up! | %85
!ped! !arpeggio!!fermata![B,,,=D,F,B,=D]12!ped-up! |] %86
V:3
 x6 | x12 | x12 | x12 | x12 | x6 !>!d2 Bcdg | f6 x6 | x12 | x12 | x12 | x12 | %11
 x2/3!8va(! x16/3!8va)! x6 | x12 | x12 | x6 (7:6:6x/4x/4x/ x4 x x | x6 x4 x7/4 x/4 | %16
 x3 x x2 x4 x7/4 x/4 |!8va(! x2 x2!8va)! x8 | x12 | x12 | x12 | x12 | x12 | x12 | x12 | x12 | x12 | %27
 x12 | x12 | x12 | x4 x7/4x/4 x6 | x12 | x12 | x12 | x12 | x12 | x12 | x12 | x12 | x12 | x12 | %41
 x12 | x12 | x12 | x12 | x12 | x12 | x12 | x12 | x12 | x12 | [F_c]6 [Fc]6 | x12 | %53
 [F_c]6- [Fc]2 [Fc]4 | x12 | x6 x4 _c2 | _c12 | x6 x4 _C2- | C12 | x12 | x12 | x12 | x12 | x12 | %64
 x12 | x12 | x12 | x12 | x12 | x12 | x12 | x12 | x12 | x8/3!8va(! x77/15!8va)! x21/5 | x12 | x12 | %76
 x6 (7:4:7x/x/x/x/x/x/x/ x4 | x6 x4 x7/4x/4 | x3 x x2 x4 x7/4x/4 |!8va(! x2 x2!8va)! x8 | x12 | %81
 x12 | x12 | x12 | x12 | x12 |] %86
V:4
 x6 | x12 | x12 | x12 | x12 | x12 | x12 | x12 | x12 | x12 | x12 | x12 | x12 | x12 | %14
 x8[K:treble] x4 |[K:bass] x6 x F,4 x | x6 x F,4 x/ x/ | x6 x4 F,2 | x12 | x12 | x12 | x12 | x12 | %23
 x12 | x12 | x12 | x12 | x12 | x12 | x12 | x12 | x12 | x12 | x12 | x12 | x12 | x12 | x12 | x12 | %39
 x12 | x12 | x12 | x12 | x12 | x12 | x12 | x12 | x12 | x12 | x12 | x12 | x12 | x12 | x12 | x12 | %55
 x12 | x12 | x12 | x12 | x12 | x12 | x12 | x12 | x12 | x12 | x12 | x12 | x12 | x12 | x12 | %70
 x6 D,2 x4 | x12 | x12 | x12 | x12 | x12 | x8[K:treble] x4 |[K:bass] x12 | x12 | x12 | x12 | x12 | %82
 x12 |[K:treble] x10[K:bass] x2 | F,6 F,2 F,2 (G,F,) | x12 |] %86
V:5
 x6 | x12 | x12 | x12 | x12 | x12 | x12 | x12 | x12 | x12 | x12 | x12 | x12 | x12 | %14
 x8[K:treble] x4 |[K:bass] x12 | x12 | x12 | x12 | x12 | x12 | x12 | x12 | x12 | x12 | x12 | x12 | %27
 x12 | x12 | x12 | x12 | x12 | x12 | x12 | x12 | x12 | x12 | x12 | x12 | x12 | x12 | x12 | x12 | %43
 x12 | x12 | x12 | x12 | x12 | x12 | x12 | x12 | x12 | x12 | x12 | x12 | x12 | x12 | x12 | x12 | %59
 x12 | x12 | x12 | x12 | x12 | x12 | x12 | x12 | x12 | x12 | x12 | x4 x B,,2 x x4 | x12 | x12 | %73
 x12 | x12 | x12 | x8[K:treble] x4 |[K:bass] x6 x F,4 x/ x/ | x6 x F,4 x/ x/ | x6 x4 F,2 | x12 | %81
 x12 | x12 |[K:treble] x10[K:bass] x2 | [B,,,B,,]6 [B,,,B,,]2 [B,,,B,,]2 [B,,,B,,]2 | %85
 x/x/x/x/ x2- x8 |] %86
V:6
 x6 | x12 | x12 | x12 | x12 | x12 | x12 | x12 | x12 | x12 | x12 | x12 | x12 | x12 | %14
 x8[K:treble] x4 |[K:bass] x12 | x12 | x12 | x12 | x12 | x12 | x12 | x12 | x12 | x12 | x12 | x12 | %27
 x12 | x12 | x12 | x12 | x12 | x12 | x12 | x12 | x12 | x12 | x12 | x12 | x12 | x12 | x12 | x12 | %43
 x12 | x12 | x12 | x12 | x12 | x12 | x12 | x12 | x12 | x12 | x12 | x12 | x12 | x12 | x12 | x12 | %59
 x12 | x12 | x12 | x12 | x12 | x12 | x12 | x12 | x12 | x12 | x12 | x6 x F,2 x3 | x12 | x12 | x12 | %74
 x12 | x12 | x8[K:treble] x4 |[K:bass] x12 | x12 | x12 | x12 | x12 | x12 | %83
[K:treble] x10[K:bass] x2 | x12 | x12 |] %86

